X:400
T: Seasons
S: Darley & McCall Collection
Z: B.Black
L: 1/8
M: 6/8
R: jig
K: G
B/c/|d2d BGB|dcB AFD|GFG A3|BGB ABc|
dcd BGB|dcB AFD|GFG ABc|BdB G2 :|
d/c/|B2B ABc|Bdc BAG|B2B ABc|BdB G2 d/c/|
B2B ABc|Bdc BAG|gdB ABc|BdB G2 :|
